X:1
T:O Night - Webbe
T:#
%%score [ 1 2 3 4 ]
L:1/8
Q:1/4=72
M:4/4
K:D
V:1 treble nm="Soprano" snm="S"
V:2 treble nm="Alto" snm="A"
V:3 treble-8 nm="Tenor" snm="T"
V:4 bass nm="Bass" snm="B"
V:1
"^largo"!pp!"^O Night""^Samuel Webbe \n(1740-1816)" (F3 G A4) | d4 z2 d2 |"^cresc." c4 d4 | e4 d4 | %4
w: O * *|Night, more|plea- sing|than the|
 c4 d4 |[Q:1/4=54] !fermata!c4 || %6
w: bright- est|day,|
[M:4/4]S[Q:1/4=90]"^andante"[Q:1/4=90][Q:1/4=90][Q:1/4=90] z2!mf! e2 || A2 (Bc) d3 d | %8
w: When|fan- cy * gives, when|
 d3 (c/B/) cA A (B/c/) | d6 e2 | e2 z2 A2 A2 | A2 A2 ^GB e2- | e2 d2 c2 (B3/2c/4d/4) | c2 TB2 A4 | %14
w: fan- cy * gives what ab- sence *|takes a-|way, takes a-|way, when fan- cy gives|* what ab- sence * *|takes a- way,|
 z2!p! A2 A2 A2 | B2 B2 BBBB | c4 c2 c2 | d2 d2 dddd | c6!f! c2 | d4 c4 | (d2 c2 B2)"^dim." A2 | %21
w: And drest in|all its vi- sion- a- ry|charms, drest in|all its vi- sion- a- ry|charms, Re-|stores my|fair * * de-|
 G2 B2 e2 d2 | (d2 c2)!f! (e3 f/g/) | (f>ac>e d>f) (A>=c) | (B>d) (F>A) B2 B2 | %25
w: ser- ter to my|arms, * re\- * *|stores * * * * * my *|fair * de\- * ser- ter|
 (A3 G/4F/4E/4D/4 E3) (F/G/) | (G2[Q:1/4=60] !fermata!F6)!fine! |] %27
w: to * * * * * my *|arms; *|
[K:F][M:3/2]"^lento"!p![Q:1/4=160] D4 | F8 F4 | E8 A4 | %30
w: But|when with|day the|
[M:3/2][Q:1/4=160][Q:1/4=160][Q:1/4=160][Q:1/4=160] (A4 G4) G4 | (G4 F4) F4 | F4 E8 | F8!f! F4 || %34
w: sweet, * the|sweet * de-|lu- sions|fly, And|
[M:2/2]"^alla breve" A4 c4 | f4 z2 F2 |[M:2/2] F4 F4 | c4 z4 | B6 B2 | A4 G4 | F4 E4 | F6 || %42
w: all things|wake, and|all things|wake,|wake to|life and|joy; but|I,|
[M:4/4]"^adagio"[Q:1/4=72] c2 | c2 ^c2 d3 e | %44
w: As|if once more for-|
[M:4/4][Q:1/4=72][Q:1/4=72][Q:1/4=72][Q:1/4=72] fedd (d ^c2)!p! c | d2 (d!courtesy!=c) (cB) (BA) | %46
w: sa- ken, I com- plain, * And|close my * eyes, * to *|
!pp! (AG) z B d2 z d | (d2 ^c2) z2!mf![Q:1/4=90] e2 |] %48
w: dream * of you a-|* gain. When|
V:2
!pp! (D3 E F2 E2) | G4 z2 D2 |"^cresc." E4 A4 | A4 F4 | G4 F4 | !fermata!E4 ||[M:4/4] z4 || z8 | %8
w: O * * *|Night, more|plea- sing|than the|bright- est|day,|||
 z4 z2!mf! A2 | D2 (EF) G2 G2 | G3 (F/E/) F2 F2 | D2 (EF) E3 ^G | (A2 B2 A3) (^G/F/) | %13
w: When|fan- cy * gives, when|fan- cy * gives, when|fan- cy * gives what|ab\- * * sence *|
 E2 E2 (D2 C2) | z2!p! C2 C2 C2 | D2 D2 DDDD | E4 E2 E2 | F2 F2 ^GGGG | A6!f!!f! E2 | F4 E4 | %20
w: takes a- way, *|And drest in|all its vi- sion- a- ry|charms, drest in|all its vi- sion- a- ry|charms, Re-|stores my|
 (F2 E2 D2)"^dim." C2 | B,2 D2 G2 F2 | (F2 E2) z2!f! A2 | A6 D2 | B2 A2 G2 G2 | F4 E4 | %26
w: fair * * de-|ser- ter to my|arms, * re-|stores my|fair de- ser- ter|to my|
 !fermata!D8 |][K:F][M:3/2]!p! D4 | D8 D4 | (D4 C4) C4 |[M:3/2] D8 D4 | C8 C4 | B,8 B,4 | %33
w: arms;|But|when with|day * the|sweet, the|sweet de-|lu- sions|
 A,8!f! A,4 ||[M:2/2] C4 F4 | A4 z2 A2 |[M:2/2] G4 G4 | F4 z4 | E6 E2 | F4 D4 | C4 C4 | C6 || %42
w: fly, And|all things|wake, and|all things|wake,|wake to|life and|joy; but|I,|
[M:4/4] F2 | F2 E2 D3 ^C |[M:4/4] DGAF (F E2)!p! E | D2 G2 F2 E2 |!pp! D2 z D D2 z D | %47
w: As|if once more for-|sa- ken, I com- plain, * And|close my eyes, to|dream of you a-|
 (F2 E2) z4 |] %48
w: * gain.|
V:3
!pp! A8 | G4 z2 G2 |"^cresc." G4 F4 | G4 A4 | A4 A4 | !fermata!A4 ||[M:4/4][K:treble-8] z4 || %7
w: O|Night, more|plea- sing|than the|bright- est|day,||
 z4 z2!mf! B2 | E2 (F^G) A2 (A>=G) | F2 (GA) B3 B | c2 (de) d2 d2 | d2 c2 B3 d | (c2 B2 c2) d2 | %13
w: When|fan- cy * gives, when *|fan- cy * gives, when|fan- cy * gives, when|fan- cy gives what|ab\- * * sence|
 A2 T^G2 A4 | z2!p! A2 A2 A2 | A2 A2 AAAA | A4 A2 A2 | A2 A2 BBBB | E6!f! A2 | A4 A4 | A4 z4 | z8 | %22
w: takes a- way,|And drest in|all its vi- sion- a- ry|charms, drest in|all its vi- sion- a- ry|charms, Re-|stores my|fair,||
 z4!f! (c3 d/e/) | d2 e2 f2 d2 | d2 d2 d2 e2 | (e2 d4) c2 | !fermata!d8 |][K:F][M:3/2]!p! A4 | %28
w: re\- * *|stores, re- stores my|fair de- ser- ter|to * my|arms;|But|
 A8 A4 | A8 c4 |[M:3/2][K:treble-8] B8 G4 | c8 A4 | B4 G8 | F8!f! F4 ||[M:2/2] F4 A4 | c4 z2 c2 | %36
w: when with|day the|sweet, the|sweet de-|lu- sions|fly, And|all things|wake, and|
[M:2/2][K:treble-8] d4 c4 | c4 z4 | G6 G2 | A4 B4 | A4 G4 | A6 ||[M:4/4] A2 | A2 A2 A3 A | %44
w: all things|wake,|wake to|life and|joy; but|I,|As|if once more for-|
[M:4/4][K:treble-8] AGFB A3!p! A | A2 G2 D2 E2 |!pp! G2 z G G2 z D | A4 z4 |] %48
w: sa- ken, I com- plain, And|close my eyes, to|dream of you a-|gain.|
V:4
!pp! (D,6 C,2) | B,,4 z2 B,,2 |"^cresc." A,,4 A,,4 | A,,4 A,,4 | A,4 A,,4 | !fermata!A,,4 || %6
w: O *|Night, more|plea- sing|than the|bright- est|day,|
[M:4/4] z4 || z8 | z8 | z4 z2!mf! E,2 | A,,2 (B,,C,) D,2 D,2 | B,,2 (C,D,) E,3 E, | %12
w: |||When|fan- cy * gives, when|fan- cy * gives what|
 (F,2 ^G,2 A,2) D,2 | E,3 E, A,,4 | z8 | z8 | z2!p! A,,2 A,,2 A,,2 | A,,2 A,,2 A,,A,,A,,A,, | %18
w: ab\- * * sence|takes a- way,|||And drest in|all its vi- sion- a- ry|
 A,,6!f! A,,2 | D,4 A,4 | D,6"^dim." F,2 | G,2 G,2 G,2 ^G,2 | A,4 z2!f! A,2 | D,2 A,2 D2 F,2 | %24
w: charms, Re-|stores my|fair de-|ser- ter to my|arms, re-|stores, re- stores my|
 G,2 D,2 G,2 E,2 | (A,2 B,2 G,2) A,2 | !fermata!D,8 |][K:F][M:3/2]!p! D,4 | D,8 D,4 | A,8 A,4 | %30
w: fair de- ser- ter|to * * my|arms;|But|when with|day the|
[M:3/2] B,8 B,4 | A,8 A,4 | G,4 C,8 | F,8!f! F,4 ||[M:2/2] F,4 F,4 | F,4 z2 A,,2 | %36
w: sweet, the|sweet de-|lu- sions|fly, And|all things|wake, and|
[M:2/2] B,,4 C,4 | A,,4 z4 | G,6 G,2 | F,4 B,,4 | C,4 C,4 | F,6 ||[M:4/4] F,2 | A,2 G,2 F,3 E, | %44
w: all things|wake,|wake to|life and|joy; but|I,|As|if once more for-|
[M:4/4] D,E,F,G, A,2!p! G,2 | F,2 E,2 D,2 C,2 |!pp! B,,2 z B,, B,,2 z B,, | A,,4 z4 |] %48
w: sa- ken, I com- plain, And|close my eyes, to|dream of you a-|gain.|

